!!!OTL: FAHR MICH HINUEBER
!!!ARE: Europa, Mitteleuropa, Deutschland; Italia
!!!SCT: B0719
!!!YEM: Copyright 1995, estate of Helmut Schaffrath.
**kern
*ICvox
*Ivox
*M3/4
*k[b-]
*F:
{8cc
8cc
8dd
=1
4.cc
8b-
8b-
8cc
=2
4b-
8a}
{8a
8a
8b-
=3
4.a
8g
8d
8e
=4
4f
8r}
{8f
8a
8cc
=5
4.ff
8ee
8gg
8ff
=6
4ee
8dd}
{8g
8a
8b-
=7
4.dd
8cc
8g
8a
=8
4f
8r}
{8f
8a
8cc
=9
4.ff
8ee
8gg
8ff
=10
4ee
8dd}
{8g
8a
8b-
=11
4.dd
8cc
8g
8a
=12
4f
8r}
==
!!!AGN: ???
!!!ONB: ESAC (Essen Associative Code) Database: BOEHME
!!!AMT: simple triple
!!!AIN: vox
!!!EED: Helmut Schaffrath
!!!EEV: 1.0
*-
